common/src/main/resources/icons/plugins/markdown/Toggle_editor_preview.svg

<svg xmlns="http://www.w3.org/2000/svg" width="16" height="16" data-big="true" viewBox="0 0 24 24"><path fill="#89DDFF" d="M10 18H6v-2h4zm0-4H6v-2h4zm0-13v1H6c-1.11 0-2 .89-2 2v16a2 2 0 0 0 2 2h4v1h2V1zm10 7v12c0 1.11-.89 2-2 2h-4v-2h4v-9h-4V9h4.5L14 4.5V2zm-4 6h-2v-2h2zm0 4h-2v-2h2z"/></svg>

<!--
  - The MIT License (MIT)
  -
  - Copyright (c) 2015-2024 Elior "Mallowigi" Boukhobza
  -
  - Permission is hereby granted, free of charge, to any person obtaining a copy
  - of this software and associated documentation files (the "Software"), to deal
  - in the Software without restriction, including without limitation the rights
  - to use, copy, modify, merge, publish, distribute, sublicense, and/or sell
  - copies of the Software, and to permit persons to whom the Software is
  - furnished to do so, subject to the following conditions:
  -
  - The above copyright notice and this permission notice shall be included in all
  - copies or substantial portions of the Software.
  -
  - THE SOFTWARE IS PROVIDED "AS IS", WITHOUT WARRANTY OF ANY KIND, EXPRESS OR
  - IMPLIED, INCLUDING BUT NOT LIMITED TO THE WARRANTIES OF MERCHANTABILITY,
  - FITNESS FOR A PARTICULAR PURPOSE AND NONINFRINGEMENT. IN NO EVENT SHALL THE
  - AUTHORS OR COPYRIGHT HOLDERS BE LIABLE FOR ANY CLAIM, DAMAGES OR OTHER
  - LIABILITY, WHETHER IN AN ACTION OF CONTRACT, TORT OR OTHERWISE, ARISING FROM,
  - OUT OF OR IN CONNECTION WITH THE SOFTWARE OR THE USE OR OTHER DEALINGS IN THE
  - SOFTWARE.
  -->


<svg data-big="true" xmlns="http://www.w3.org/2000/svg" version="1.1" width="16px" height="16px" viewBox="0 0 24 24">
  <path fill="#89DDFF"
        d="M10,18H6V16H10V18M10,14H6V12H10V14M10,1V2H6C4.89,2 4,2.89 4,4V20A2,2 0 0,0 6,22H10V23H12V1H10M20,8V20C20,21.11 19.11,22 18,22H14V20H18V11H14V9H18.5L14,4.5V2L20,8M16,14H14V12H16V14M16,18H14V16H16V18Z"/>
</svg>
